X: 592
T: Georgiana Moon
B: jims roots
M:3/4
L:1/8
R: Waltz
Q: 1/4=100
K:Dmaj
V:1 
DFA | "D"d6 | "F#m"c6 | "D6"B3A FD | "D"A,4z2 | B2A2F2 | D4E2 | "A"(E4 E)F | E4z2 ||
"A"c6 | "A9"B6 | "A"A3F EC | A,3A, CA | E3^D EA | "A+"=F3A, A,A | "D"(^F4 F)G | F4z2 |
"D"d6 | "F#m"c6 | "D6"B3A FD |"D"A,3G, F,A, | D3A, DF | "D7"E4 Dd | "G"B3G "Bm"(3FBF | "Em" E4D2 |
"G"d3B GD | "Gm"_B6 | {dc=B}A3F DB, | "B"G3A AA |"E"F3E CA, | "A"F3E CA, |
V:[1 "D"D3F, B,B, |"A"A,3D FG :| [2"D"(3DCD (3F^EF (3AGA | [F6d
 |]
% abcbook-tune_id 6298c25d2afd9dfffec676c2


% abcbook-boost 0
% abcbook-tablature 
% abcbook-transpose 
% abcbook-lastupdated 1654178398201
% abcbook-soundfonts 
% abcbook-repeats 1


